dist/img/burger.svg

<svg width="24" height="16" viewBox="0 0 24 16" fill="none" xmlns="http://www.w3.org/2000/svg">
<path fill-rule="evenodd" clip-rule="evenodd" d="M1.264 0H22.7347C23.4307 0 24 0.569333 24 1.26533V1.40133C24 2.09733 23.4307 2.66667 22.7347 2.66667H1.264C0.568 2.66667 0 2.09733 0 1.40133V1.26533C0 0.569333 0.568 0 1.264 0ZM22.7347 6.66667H1.264C0.568 6.66667 0 7.23601 0 7.932V8.068C0 8.764 0.568 9.33333 1.264 9.33333H22.7347C23.4307 9.33333 24 8.764 24 8.068V7.932C24 7.23601 23.4307 6.66667 22.7347 6.66667ZM22.7347 13.3333H1.264C0.568 13.3333 0 13.9027 0 14.5987V14.7347C0 15.4307 0.568 16 1.264 16H22.7347C23.4307 16 24 15.4307 24 14.7347V14.5987C24 13.9027 23.4307 13.3333 22.7347 13.3333Z" fill="white"/>
</svg>

<svg width="24" height="16" viewBox="0 0 24 16" fill="none" xmlns="http://www.w3.org/2000/svg"><path fill-rule="evenodd" clip-rule="evenodd" d="M1.264 0h21.47C23.432 0 24 .57 24 1.265v.136a1.27 1.27 0 01-1.265 1.266H1.264C.568 2.667 0 2.097 0 1.4v-.136C0 .57.568 0 1.264 0zm21.47 6.667H1.265C.568 6.667 0 7.236 0 7.932v.136c0 .696.568 1.265 1.264 1.265h21.47c.697 0 1.266-.569 1.266-1.265v-.136c0-.696-.57-1.265-1.265-1.265zm0 6.666H1.265C.568 13.333 0 13.903 0 14.6v.136C0 15.43.568 16 1.264 16h21.47A1.27 1.27 0 0024 14.735v-.136a1.27 1.27 0 00-1.265-1.266z" fill="#fff"/></svg>
